wp-content/themes/workingnyc/assets/svg/program-card-education.svg

<svg fill="none" height="60" viewBox="0 0 61 60" width="61" xmlns="http://www.w3.org/2000/svg"><rect fill="#e3f1fd" height="60" rx="30" width="60" x=".319" y=".006"/><path clip-rule="evenodd" d="m24.5546 17.5361c-.2584-.344-.708-.4841-1.1161-.3479-.4082.1363-.6834.5183-.6834.9486v8.0147c0 .5523.4477 1 1 1s1-.4477 1-1v-5.0188l4.2302 5.6307c.2585.344.708.4842 1.1161.3479.4082-.1362.6834-.5182.6834-.9485v-8.026c0-.5523-.4477-1-1-1s-1 .4477-1 1v5.0301zm-8.6977-.3993h4.8882c.5522 0 1 .4477 1 1s-.4478 1-1 1h-3.8882v2.0128h3.6702c.5523 0 1 .4477 1 1s-.4477 1-1 1h-3.6702v2.0086l3.8835-.018c.5523-.0026 1.0021.4431 1.0047.9954.0025.5522-.4431 1.002-.9954 1.0046l-4.8881.0226c-.5523.0025-1.0021-.4431-1.0047-.9954-.0003-.0673.0061-.1331.0185-.1968-.0121-.0622-.0185-.1264-.0185-.1922v-3.6288-4.0128c0-.5523.4477-1 1-1zm17.498 10.6939c-.4902 0-.9081.3553-.987.8391l-1.6993 10.4194-2.2146-3.5528c-.2922-.4686-.9089-.6117-1.3776-.3196-.4687.2922-.6118.909-.3196 1.3777l3.6219 5.8103c.2204.3535.6368.5334 1.0453.4515.4084-.0819.7233-.4084.7903-.8195l1.9907-12.2061h10.5763c.5523 0 1-.4477 1-1 0-.5522-.4477-1-1-1zm4.7027 5.4807c-.366-.4137-.998-.4524-1.4116-.0864-.4137.3659-.4523.9979-.0864 1.4115l1.5025 1.6984-1.5096 1.7436c-.3614.4175-.316 1.0491.1016 1.4106.4175.3614 1.049.316 1.4105-.1015l1.3344-1.5414 1.2807 1.4477c.366.4136.998.4523 1.4116.0864.4137-.366.4523-.998.0864-1.4116l-1.4579-1.648 1.465-1.6922c.3615-.4176.316-1.0491-.1015-1.4106-.4176-.3615-1.0491-.316-1.4106.1015l-1.2899 1.49z" fill="#031837" fill-rule="evenodd"/></svg>

<svg width="61" height="60" viewBox="0 0 61 60" fill="none" xmlns="http://www.w3.org/2000/svg"><rect x=".319" y=".006" width="60" height="60" rx="30" fill="#E3F1FD"/><path fill-rule="evenodd" clip-rule="evenodd" d="M24.5546 17.5361C24.2962 17.1921 23.8466 17.052 23.4385 17.1882C23.0303 17.3245 22.7551 17.7065 22.7551 18.1368L22.7551 26.1515C22.7551 26.7038 23.2028 27.1515 23.7551 27.1515C24.3074 27.1515 24.7551 26.7038 24.7551 26.1515L24.7551 21.1327L28.9853 26.7634C29.2438 27.1074 29.6933 27.2476 30.1014 27.1113C30.5096 26.9751 30.7848 26.5931 30.7848 26.1628L30.7848 18.1368C30.7848 17.5845 30.3371 17.1368 29.7848 17.1368C29.2325 17.1368 28.7848 17.5845 28.7848 18.1368L28.7848 23.1669L24.5546 17.5361ZM15.8569 17.1368L20.7451 17.1368C21.2973 17.1368 21.7451 17.5845 21.7451 18.1368C21.7451 18.6891 21.2973 19.1368 20.7451 19.1368L16.8569 19.1368L16.8569 21.1496L20.5271 21.1496C21.0794 21.1496 21.5271 21.5973 21.5271 22.1496C21.5271 22.7019 21.0794 23.1496 20.5271 23.1496L16.8569 23.1496L16.8569 25.1582L20.7404 25.1402C21.2927 25.1376 21.7425 25.5833 21.7451 26.1356C21.7476 26.6878 21.302 27.1376 20.7497 27.1402L15.8616 27.1628C15.3093 27.1653 14.8595 26.7197 14.8569 26.1674C14.8566 26.1001 14.863 26.0343 14.8754 25.9706C14.8633 25.9084 14.8569 25.8442 14.8569 25.7784L14.8569 22.1496L14.8569 18.1368C14.8569 17.5845 15.3046 17.1368 15.8569 17.1368ZM33.3549 27.8307C32.8647 27.8307 32.4468 28.186 32.3679 28.6698L30.6686 39.0892L28.454 35.5364C28.1618 35.0678 27.5451 34.9247 27.0764 35.2168C26.6077 35.509 26.4646 36.1258 26.7568 36.5945L30.3787 42.4048C30.5991 42.7583 31.0155 42.9382 31.424 42.8563C31.8324 42.7744 32.1473 42.4479 32.2143 42.0368L34.205 29.8307L44.7813 29.8307C45.3336 29.8307 45.7813 29.383 45.7813 28.8307C45.7813 28.2785 45.3336 27.8307 44.7813 27.8307L33.3549 27.8307ZM38.0576 33.3114C37.6916 32.8977 37.0596 32.859 36.646 33.225C36.2323 33.5909 36.1937 34.2229 36.5596 34.6365L38.0621 36.3349L36.5525 38.0785C36.1911 38.496 36.2365 39.1276 36.6541 39.4891C37.0716 39.8505 37.7031 39.8051 38.0646 39.3876L39.399 37.8462L40.6797 39.2939C41.0457 39.7075 41.6777 39.7462 42.0913 39.3803C42.505 39.0143 42.5436 38.3823 42.1777 37.9687L40.7198 36.3207L42.1848 34.6285C42.5463 34.2109 42.5008 33.5794 42.0833 33.2179C41.6657 32.8564 41.0342 32.9019 40.6727 33.3194L39.3828 34.8094L38.0576 33.3114Z" fill="#031837"/></svg>
